X:1

T:Whiddon’s Hornpipe

M:C

L:1/8

R:Hornpipe

S:Adam Craig – The Empire Collection of Hornpipes (c. late 19th cent.)

Z:AK/Fiddler’s Companion

K:Bb

F2 | B2 (BA) BFDF | Bcde fgab | BFcF dFeF | dcBd cBAc | B2 BA BFDF | Bcde fgab |

{g}f=efg f_ecA | Bbfd B2 :: (FD) | B,DFB dBFD | EGcd ecAc | Bbab fdBd |

(3cdc (3BAG (3FGF (3EDC | B,DFB dBFD | EGcd ecAc | Bbab gecA | (3Bdf (3bfd B2 :|

 

WHIFFLE TREE. American, Quadrille. Edison 51236 (78 RPM), 1923, John Baltzell (appears as last tune of "Old Red Barn Medley Quadrille") {Baltzell was a native of Mt. Vernon, Ohio, as was minstrel Dan Emmett (d. 1904). Emmett returned to the town in 1888, poor, and later taught Baltzell to play the fiddle}.

 

WHIGS OF FIFE. Scottish, Reel. F Major (most versions): G Major (Aird). Standard. AB (Surenne): AAB (Gow): AABB (Aird, Kerr, Martin): AABB' (Athole): AABBCCDD (Marshall). John Glen finds the tune earliest published in Neil Stewart's 1761 collection (pg. 24). The tune was published in a sheet by William Marshall, and is sometimes therefore attributed to him. Yet, as Kate Dunlay points out, it is unlikely he composed it for he would only have been aged 13 when the tune appeared in Stewart’s 1761 collection. It is more reasonable, suggests Dunlay, that Marshall composed the last two parts as variations.  Marshall was a staunch Tory all his life and so perhaps had no love for the Whigs of the County of Fife, Scotland. John Glen finds the tune earliest published in Neil Stewart's 1761 collection (pg. 24). Aird (Selections), vol. II, 1785; No. 43, pg. 16. Gow (Complete Repository), Part 1, 1799; pg. 29. Kerr (Merry Melodies), Vol. 2; No. 182, pg. 21. Marshall, Fiddlecase Edition, 1978; Kinrara Collection (1800), pg. 26. Martin (Ceol na Fidhle), Vol. 2, 1988; pg. 28. Stewart-Robertson (The Athole Collection), 1884; pg. 205. Surenne (Dance Music of Scotland), 1852; pg. 126. Rounder 7059, Alex Francis MacKay with Gordon MacLean – “Gaelic in the Bow” (2005).

See also listings at:

Alan Snyder’s Cape Breton Fiddle Recording Index

